dist/static/img/about/01.svg

<svg width="48" height="48" viewBox="0 0 48 48" fill="none" xmlns="http://www.w3.org/2000/svg">
<g clip-path="url(#clip0_652_1007)">
<path d="M46.4 38.4V9.6C46.3974 7.39196 44.608 5.60264 42.4 5.6H34.1816C34.1971 5.15857 34.0295 4.73036 33.7184 4.4168L32.3832 3.0824C31.8446 2.54256 30.9999 2.45785 30.3648 2.88L28.312 4.2296C27.8869 4.01609 27.4462 3.8353 26.9936 3.6888L26.5136 1.2888C26.3651 0.539646 25.7077 -7.44403e-05 24.944 7.70096e-09H23.056C22.2935 2.9277e-06 21.637 0.538013 21.4872 1.2856L20.988 3.6928C20.5362 3.84126 20.0965 4.0242 19.6728 4.24L17.636 2.88C17.0015 2.45658 16.1563 2.53996 15.6168 3.0792L14.2824 4.4168C13.9705 4.7299 13.8025 5.15835 13.8184 5.6H5.6C3.39196 5.60264 1.60264 7.39196 1.6 9.6V38.4C0.716344 38.4 0 39.1163 0 40V42.4C0.00352691 45.4913 2.50867 47.9965 5.6 48H42.4C45.4913 47.9965 47.9965 45.4913 48 42.4V40C48 39.1163 47.2837 38.4 46.4 38.4ZM16.748 4.2128L18.7856 5.5728C19.2713 5.89051 19.8899 5.92408 20.4072 5.6608C20.7563 5.48547 21.1178 5.336 21.4888 5.2136C22.0432 5.0345 22.4583 4.5708 22.5752 4L23.0552 1.6H24.9432L25.4232 4C25.5414 4.56928 25.9562 5.03119 26.5096 5.2096C26.8808 5.33214 27.2426 5.48161 27.592 5.6568C28.1089 5.92044 28.7275 5.88686 29.2128 5.5688L31.2504 4.2088L32.5856 5.544L31.2256 7.5816C30.9076 8.06723 30.874 8.686 31.1376 9.2032C31.3129 9.55231 31.4624 9.91381 31.5848 10.2848C31.763 10.8412 32.2276 11.2581 32.8 11.3752L35.2 11.8552V13.7432L32.8 14.2232C32.2307 14.3414 31.7688 14.7562 31.5904 15.3096C31.4679 15.6808 31.3184 16.0426 31.1432 16.392C30.8796 16.9089 30.9131 17.5275 31.2312 18.0128L32.5912 20.0504L31.256 21.3856L29.2184 20.0256C28.7324 19.7087 28.1142 19.6752 27.5968 19.9376C27.2477 20.1129 26.8862 20.2624 26.5152 20.3848C25.9588 20.563 25.5419 21.0276 25.4248 21.6L24.9448 24H23.056L22.576 21.6C22.4578 21.0307 22.043 20.5688 21.4896 20.3904C21.1184 20.2679 20.7566 20.1184 20.4072 19.9432C20.1776 19.8278 19.9242 19.7675 19.6672 19.7672C19.3543 19.7666 19.0481 19.8584 18.7872 20.0312L16.7496 21.3912L15.4144 20.056L16.7744 18.0184C17.0924 17.5328 17.126 16.914 16.8624 16.3968C16.6871 16.0477 16.5376 15.6862 16.4152 15.3152C16.237 14.7588 15.7724 14.3419 15.2 14.2248L12.8 13.7448V11.856L15.2 11.376C15.7693 11.2578 16.2312 10.843 16.4096 10.2896C16.5321 9.9184 16.6816 9.55664 16.8568 9.2072C17.1204 8.69029 17.0869 8.07173 16.7688 7.5864L15.4088 5.5488L16.748 4.2128ZM3.2 9.6C3.2 8.27452 4.27452 7.2 5.6 7.2H14.5832L15.4296 8.488C15.2161 8.91309 15.0353 9.35383 14.8888 9.8064L12.4888 10.2864C11.7396 10.4349 11.1999 11.0923 11.2 11.856V13.744C11.2 14.5065 11.738 15.163 12.4856 15.3128L14.8928 15.812C15.0413 16.2638 15.2242 16.7035 15.44 17.1272L14.08 19.164C13.6566 19.7985 13.74 20.6437 14.2792 21.1832L15.6144 22.5176C16.1534 23.0569 16.9981 23.141 17.6328 22.7184L19.6856 21.3704C20.1107 21.5839 20.5514 21.7647 21.004 21.9112L21.484 24.3112C21.6327 25.0612 22.2914 25.6012 23.056 25.6H24.944C25.7065 25.6 26.363 25.062 26.5128 24.3144L27.012 21.9072C27.4638 21.7587 27.9035 21.5758 28.3272 21.36L30.364 22.72C30.9985 23.1434 31.8437 23.06 32.3832 22.5208L33.7176 21.1856C34.2569 20.6466 34.341 19.8019 33.9184 19.1672L32.5704 17.112C32.7839 16.6869 32.9647 16.2462 33.1112 15.7936L35.5112 15.3136C36.2604 15.1651 36.8001 14.5077 36.8 13.744V11.856C36.8 11.0935 36.262 10.437 35.5144 10.2872L33.1072 9.788C32.9587 9.33624 32.7758 8.89655 32.56 8.4728L33.4088 7.2H42.4C43.7255 7.2 44.8 8.27452 44.8 9.6V38.4H3.2V9.6ZM16.8 40H31.2V40.8C31.2 41.6837 30.4837 42.4 29.6 42.4H18.4C17.5163 42.4 16.8 41.6837 16.8 40.8V40ZM46.4 42.4C46.3974 44.608 44.608 46.3974 42.4 46.4H5.6C3.39196 46.3974 1.60264 44.608 1.6 42.4V40H15.2V40.8C15.2 42.5673 16.6327 44 18.4 44H29.6C31.3673 44 32.8 42.5673 32.8 40.8V40H46.4V42.4Z" fill="white"/>
<path d="M11.9998 41.6H9.5998C9.15798 41.6 8.7998 41.9581 8.7998 42.4C8.7998 42.8418 9.15798 43.2 9.5998 43.2H11.9998C12.4416 43.2 12.7998 42.8418 12.7998 42.4C12.7998 41.9581 12.4416 41.6 11.9998 41.6Z" fill="white"/>
<path d="M4.8 43.2C5.24183 43.2 5.6 42.8418 5.6 42.4C5.6 41.9581 5.24183 41.6 4.8 41.6C4.35817 41.6 4 41.9581 4 42.4C4 42.8418 4.35817 43.2 4.8 43.2Z" fill="white"/>
<path d="M7.20039 43.2C7.64222 43.2 8.00039 42.8418 8.00039 42.4C8.00039 41.9581 7.64222 41.6 7.20039 41.6C6.75856 41.6 6.40039 41.9581 6.40039 42.4C6.40039 42.8418 6.75856 43.2 7.20039 43.2Z" fill="white"/>
<path d="M23.9996 19.2C27.5342 19.2 30.3996 16.3346 30.3996 12.8C30.3996 9.2654 27.5342 6.40002 23.9996 6.40002C20.465 6.40002 17.5996 9.2654 17.5996 12.8C17.6036 16.333 20.4666 19.1961 23.9996 19.2ZM23.9996 8.00002C26.6506 8.00002 28.7996 10.1491 28.7996 12.8C28.7996 15.451 26.6506 17.6 23.9996 17.6C21.3486 17.6 19.1996 15.451 19.1996 12.8C19.2023 10.1502 21.3497 8.00267 23.9996 8.00002Z" fill="white"/>
<path d="M19.1998 29.6C19.1998 25.6236 15.9763 22.4 11.9998 22.4C8.02335 22.4 4.7998 25.6236 4.7998 29.6C4.7998 33.5765 8.02335 36.8 11.9998 36.8C15.9742 36.7952 19.195 33.5745 19.1998 29.6ZM11.9998 35.2C8.90701 35.2 6.3998 32.6928 6.3998 29.6C6.3998 26.5072 8.90701 24 11.9998 24C15.0926 24 17.5998 26.5072 17.5998 29.6C17.5963 32.6914 15.0911 35.1965 11.9998 35.2Z" fill="white"/>
<path d="M35.9998 36.8C39.9763 36.8 43.1998 33.5765 43.1998 29.6C43.1998 25.6236 39.9763 22.4 35.9998 22.4C32.0234 22.4 28.7998 25.6236 28.7998 29.6C28.8047 33.5745 32.0254 36.7952 35.9998 36.8ZM35.9998 24C39.0926 24 41.5998 26.5072 41.5998 29.6C41.5998 32.6928 39.0926 35.2 35.9998 35.2C32.907 35.2 30.3998 32.6928 30.3998 29.6C30.4033 26.5087 32.9085 24.0036 35.9998 24Z" fill="white"/>
<path d="M15.7655 26.6344C15.4531 26.3221 14.9467 26.3221 14.6343 26.6344L10.3999 30.8688L9.36553 29.8344C9.05163 29.5312 8.55267 29.5355 8.24408 29.8441C7.93549 30.1527 7.93116 30.6517 8.23434 30.9656L9.83434 32.5656C10.1467 32.8779 10.6531 32.8779 10.9655 32.5656L15.7655 27.7656C16.0778 27.4532 16.0778 26.9468 15.7655 26.6344Z" fill="white"/>
<path d="M33.034 32.5656C33.3464 32.8779 33.8528 32.8779 34.1652 32.5656L35.9996 30.7312L37.834 32.5656C38.1479 32.8687 38.6469 32.8644 38.9555 32.5558C39.2641 32.2472 39.2684 31.7483 38.9652 31.4344L37.1308 29.6L38.9652 27.7656C39.2684 27.4517 39.2641 26.9527 38.9555 26.6441C38.6469 26.3355 38.1479 26.3312 37.834 26.6344L35.9996 28.4688L34.1652 26.6344C33.8513 26.3312 33.3524 26.3355 33.0438 26.6441C32.7352 26.9527 32.7309 27.4517 33.034 27.7656L34.8684 29.6L33.034 31.4344C32.7217 31.7468 32.7217 32.2532 33.034 32.5656Z" fill="white"/>
</g>
<defs>
<clipPath id="clip0_652_1007">
<rect width="48" height="48" fill="white"/>
</clipPath>
</defs>
</svg>

<svg width="48" height="48" viewBox="0 0 48 48" fill="none" xmlns="http://www.w3.org/2000/svg"><g clip-path="url(#clip0_652_1007)" fill="#fff"><path d="M46.4 38.4V9.6a4.005 4.005 0 00-4-4h-8.218a1.6 1.6 0 00-.464-1.183l-1.335-1.335a1.6 1.6 0 00-2.018-.202l-2.053 1.35a9.358 9.358 0 00-1.318-.541l-.48-2.4A1.6 1.6 0 0024.944 0h-1.888a1.6 1.6 0 00-1.569 1.286l-.499 2.407a9.283 9.283 0 00-1.315.547l-2.037-1.36a1.6 1.6 0 00-2.02.2l-1.334 1.337c-.312.313-.48.741-.464 1.183H5.6a4.005 4.005 0 00-4 4v28.8A1.6 1.6 0 000 40v2.4A5.606 5.606 0 005.6 48h36.8a5.606 5.606 0 005.6-5.6V40a1.6 1.6 0 00-1.6-1.6zM16.748 4.213l2.038 1.36a1.62 1.62 0 001.621.088c.35-.176.71-.325 1.082-.447.554-.18.97-.643 1.086-1.214l.48-2.4h1.888l.48 2.4c.118.57.533 1.031 1.087 1.21.37.122.733.272 1.082.447.517.263 1.136.23 1.62-.088l2.038-1.36 1.336 1.335-1.36 2.038a1.619 1.619 0 00-.088 1.621c.175.35.324.71.447 1.082.178.556.643.973 1.215 1.09l2.4.48v1.888l-2.4.48a1.616 1.616 0 00-1.21 1.087 8.027 8.027 0 01-.447 1.082 1.617 1.617 0 00.088 1.62l1.36 2.038-1.335 1.336-2.038-1.36a1.624 1.624 0 00-1.621-.088c-.35.175-.71.324-1.082.447a1.616 1.616 0 00-1.09 1.215l-.48 2.4h-1.889l-.48-2.4a1.616 1.616 0 00-1.086-1.21 8.027 8.027 0 01-1.083-.447 1.652 1.652 0 00-.74-.176c-.313 0-.619.091-.88.264l-2.037 1.36-1.336-1.335 1.36-2.038a1.619 1.619 0 00.088-1.621 7.986 7.986 0 01-.447-1.082 1.616 1.616 0 00-1.215-1.09l-2.4-.48v-1.889l2.4-.48a1.616 1.616 0 001.21-1.086 8.03 8.03 0 01.447-1.083 1.617 1.617 0 00-.088-1.62l-1.36-2.038 1.339-1.336zM3.2 9.6a2.4 2.4 0 012.4-2.4h8.983l.847 1.288a9.36 9.36 0 00-.541 1.318l-2.4.48a1.6 1.6 0 00-1.289 1.57v1.888a1.6 1.6 0 001.286 1.569l2.407.499c.148.452.331.891.547 1.315l-1.36 2.037a1.6 1.6 0 00.2 2.02l1.334 1.334a1.6 1.6 0 002.019.2l2.053-1.348a9.36 9.36 0 001.318.541l.48 2.4a1.6 1.6 0 001.572 1.289h1.888a1.6 1.6 0 001.569-1.286l.499-2.407a9.288 9.288 0 001.315-.547l2.037 1.36a1.6 1.6 0 002.02-.2l1.334-1.334a1.6 1.6 0 00.2-2.019l-1.348-2.055a9.36 9.36 0 00.541-1.318l2.4-.48a1.6 1.6 0 001.289-1.57v-1.888a1.6 1.6 0 00-1.286-1.569l-2.407-.499a9.293 9.293 0 00-.547-1.315l.849-1.273H42.4a2.4 2.4 0 012.4 2.4v28.8H3.2V9.6zM16.8 40h14.4v.8a1.6 1.6 0 01-1.6 1.6H18.4a1.6 1.6 0 01-1.6-1.6V40zm29.6 2.4a4.005 4.005 0 01-4 4H5.6a4.005 4.005 0 01-4-4V40h13.6v.8a3.2 3.2 0 003.2 3.2h11.2a3.2 3.2 0 003.2-3.2V40h13.6v2.4z"/><path d="M12 41.6H9.6a.8.8 0 100 1.6H12a.8.8 0 000-1.6zm-7.2 1.6a.8.8 0 100-1.6.8.8 0 000 1.6zm2.4 0a.8.8 0 100-1.6.8.8 0 000 1.6zm16.8-24a6.4 6.4 0 10-6.4-6.4 6.407 6.407 0 006.4 6.4zM24 8a4.8 4.8 0 110 9.6A4.8 4.8 0 0124 8zm-4.8 21.6a7.2 7.2 0 10-7.2 7.2 7.209 7.209 0 007.2-7.2zM12 35.2a5.6 5.6 0 115.6-5.6 5.606 5.606 0 01-5.6 5.6zm24 1.6a7.2 7.2 0 10-7.2-7.2 7.209 7.209 0 007.2 7.2zM36 24a5.6 5.6 0 11-5.6 5.6A5.606 5.606 0 0136 24z"/><path d="M15.765 26.634a.8.8 0 00-1.13 0L10.4 30.87l-1.034-1.035a.8.8 0 00-1.132 1.132l1.6 1.6a.8.8 0 001.132 0l4.8-4.8a.8.8 0 000-1.132zm17.269 5.932a.8.8 0 001.131 0L36 30.73l1.834 1.835a.8.8 0 001.131-1.132L37.131 29.6l1.834-1.834a.8.8 0 00-1.131-1.132L36 28.47l-1.835-1.835a.8.8 0 00-1.131 1.132l1.834 1.834-1.834 1.834a.8.8 0 000 1.132z"/></g><defs><clipPath id="clip0_652_1007"><path fill="#fff" d="M0 0h48v48H0z"/></clipPath></defs></svg>
